src/lib/packages/icons/src/assets/line/shield-minus.svg

<svg width="24" height="24" viewBox="0 0 24 24" fill="none" xmlns="http://www.w3.org/2000/svg">
<path d="M21.147 4.26487C16.223 3.27987 14.516 2.42005 12.355 1.33005C12.144 1.22505 11.8641 1.23797 11.6531 1.34397C9.46308 2.42997 7.73205 3.28887 2.85205 4.26487C2.50105 4.33487 2.24902 4.64298 2.24902 4.99998V10.8889C2.24902 19.1229 10.173 22.1819 11.762 22.7119C11.839 22.7379 11.919 22.751 11.999 22.751C12.079 22.751 12.1591 22.7379 12.2361 22.7119C13.8251 22.1819 21.749 19.1229 21.749 10.8889V4.99998C21.75 4.64298 21.498 4.33387 21.147 4.26487ZM20.25 10.8889C20.25 17.7539 13.832 20.549 12 21.206C10.168 20.549 3.75 17.7529 3.75 10.8889V5.61301C8.135 4.69701 9.93789 3.86609 12.0149 2.83909C13.9699 3.82009 15.829 4.68801 20.25 5.61301V10.8889ZM8.9939 11.25H14.9939C15.4079 11.25 15.7439 11.586 15.7439 12C15.7439 12.414 15.4079 12.75 14.9939 12.75H8.9939C8.5799 12.75 8.2439 12.414 8.2439 12C8.2439 11.586 8.5799 11.25 8.9939 11.25Z" fill="currentColor"/>
</svg>

<svg xmlns="http://www.w3.org/2000/svg" width="24" height="24" fill="none"><path fill="currentColor" d="M21.147 4.265c-4.924-.985-6.631-1.845-8.792-2.935a.818.818 0 0 0-.702.014c-2.19 1.086-3.921 1.945-8.8 2.92A.75.75 0 0 0 2.248 5v5.889c0 8.234 7.924 11.293 9.513 11.823a.74.74 0 0 0 .474 0c1.59-.53 9.513-3.59 9.513-11.823V5a.747.747 0 0 0-.602-.735Zm-.897 6.624c0 6.865-6.418 9.66-8.25 10.317-1.832-.657-8.25-3.453-8.25-10.317V5.613c4.385-.916 6.188-1.747 8.265-2.774 1.955.981 3.814 1.849 8.235 2.774v5.276Zm-11.256.361h6a.75.75 0 0 1 0 1.5h-6a.75.75 0 0 1 0-1.5Z"/></svg>
